X:84
T:All’s Well.2voices. JMT.084
M:2/4
L:1/8
Q:1/2=60
C:”Braham”
S:J.Moore,Tyneside,1841.(60)
R:.March
O:England
A:Northumbria
Z:vmp.Chris Partington
K:G
V:1
[V:1]” Andante”D|G2G2|G3A|B2{B}A>G|G2zG|B2B2|B3c|dgec|B2Az/B/|A>B A>B|!
[V:2]z|B,2B,2|B,3D|G2D2|B,2zD|G2G2|G3A|B2cA|G2Fz|”9″F>G F>G|!
%
[V:1]”9″A>B c>A|B>A B>A|B>c dz/G/|g2{f}e>d|d2z2|z4|z2zG|g2{f}e>d|!
[V:2]F>G A>F|G>F G>F|G>A Bz|z4|z2zD|D2C>B,|B,2z2|z4|!
%
[V:1]d2zB|dc BA|G2zG|”21″cccc|BBBB|eeee|dddd|ccBB|!
[V:2]z2zG|BA GF|B,2zD|”21″GGGG|GGGG|cccc|BBBB|AAGG|!
%
[V:1]AABc|gdcB|HB2Az|”29″z4|z4|z2zG|czz2|z2zD|!
[V:2]FFGB|dBAG|HG2FD|”29″G2z2|cB zA/2G/2|E2z2|z2A2|F2c2|!
%
[V:1]d2z2|z4|z4|B2{d}c>B|B2z2|(G/4A/4B/4c/4d/4e/4f/4g/4)d2|!
[V:2]z4|G2A>G|G2z2|G2A>G|G2z2|z2z2|!
%
[V:1]z2z2|B2A>G|G2zA|B>B c>c|d>d e>c|B2A.G|G2z:|
[V:2](d/4c/4B/4A/4G/4F/4E/4D/4)C2|\
G2D2|B,2z2|G>G G>G|G>G G>A|G2D>B,|B,2z:|

